!!!SOCIAL_FUNCTION:	dance songs
!!!PDT:	1943
!!!OTL: No_40_Dance_Song_(a).krn
!!!REG: British Columbia
**kern	**kern
*staff2	*staff1
=1-	=1-
*clefF4	*clefF4
*k[]	*k[]
*M2/4	*M2/4
4GG/	4e\
4GG/	8d\L
.	8c\J
=2||	=2||
*M3/8	*M3/8
4GG/	4e\
8r	16d\LL
.	16c\JJ
=3||	=3||
*M2/4	*M2/4
2r	8e\L
.	8e\J
.	4d\
=4	=4
2r	8c\L
.	8A\J
.	4A\
=5	=5
2r	8A\L
.	8c\J
.	4c\
=6	=6
2r	4..d\
.	16d\
=7	=7
2r	4d\
.	8c\L
.	16A\L
.	16A\JJ
=8||	=8||
*M3/4	*M3/4
2.r	8c\L
.	8c\J
.	8d\L
.	8d\J
.	8c\L
.	8c\J
=9||	=9||
*M2/4	*M2/4
2r	2A\
=10	=10
2r	4A\
.	8A\
.	8r
=11	=11
2r	4..c\
.	16c\
=12	=12
2r	4c\
.	16A\
.	16r
.	8c\
=13	=13
2r	8d\L
.	8A\J
.	8c\L
.	8c\J
=14	=14
2r	4..A\
.	16A\
=15	=15
2r	4A\
.	8A\
.	8r
==	==
*-	*-
